Origami/16x16/apps/gnome-disks-state-standby-symbolic.svg

<svg width="16" height="16" version="1.1" xmlns="http://www.w3.org/2000/svg">
 <path d="m2 2v1h3.46l-3.46 4.32v0.68h5v-1h-3.46l3.46-4.32v-0.68z" style="fill:#5c5c5c"/>
 <path d="m6 5v1h3.46l-3.46 4.32v0.68h5v-1h-3.46l3.46-4.32v-0.68z" style="fill:#5c5c5c"/>
 <path d="m10 8v1h3.46l-3.46 4.32v0.68h5v-1h-3.46l3.46-4.32v-0.68z" style="fill:#5c5c5c"/>
</svg>

<svg xmlns="http://www.w3.org/2000/svg" width="16" height="16" version="1.1">
 <path style="fill:#5c5c5c" d="M 2,2 V 3 H 5.46 L 2,7.32 V 8 H 7 V 7 H 3.54 L 7,2.68 V 2 Z"/>
 <path style="fill:#5c5c5c" d="M 6,5 V 6 H 9.46 L 6,10.32 V 11 H 11 V 10 H 7.54 L 11,5.68 V 5 Z"/>
 <path style="fill:#5c5c5c" d="M 10,8 V 9 H 13.46 L 10,13.32 V 14 H 15 V 13 H 11.54 L 15,8.68 V 8 Z"/>
</svg>
